svg/u1f334.svg

<svg viewBox="0 0 128 128" xmlns="http://www.w3.org/2000/svg">
  <path d="M72.05,51.72l-10.38,6.95c0,0,8.25,9.59,10.63,22.8c1.54,8.52,2.75,16.12,1.74,23.34 c-0.41,2.95-3.26,8.9-4.08,10.9s-2,6.71,1.65,7.65s15.54,1.3,17.31,1.06s3.86-1.52,2.91-5.79c-0.59-2.65-1.59-10.94-2.18-16.59 c-0.59-5.65-0.95-16.53-5.87-29.89C78.99,59.15,72.05,51.72,72.05,51.72z" fill="#DC8124"/>
  <path d="M81.6,109.06c5.36,0.31,8.76-0.72,8.76-0.72l0.73,5.43c0,0-3.28,0.93-9.45,0.54 c-5.39-0.34-10.26-1.81-10.26-1.81l2.01-5.13C73.38,107.36,76.2,108.75,81.6,109.06z" fill="#C0711F"/>
  <path d="M74.2,94.33c0,0,0.1,1.51,0.15,2.46c0.05,0.96,0.07,2.44,0.07,2.44s4.05,0.47,7.25,0.34 c5.24-0.21,7.6-1.46,7.6-1.46s-0.09-1.17-0.24-2.55c-0.14-1.39-0.31-2.53-0.31-2.53s-2.57,1.27-7.97,1.62 C76.9,94.9,74.2,94.33,74.2,94.33z" fill="#C0711F"/>
  <path d="M72.13,80.57c0,0,2.46,0.5,7.04-0.49c4.45-0.97,6.36-2.66,6.36-2.66s0.42,1.3,0.67,2.3 c0.23,0.93,0.59,2.29,0.59,2.29s-1.8,1.77-6.68,2.73c-4.79,0.95-7.17,0.3-7.17,0.3s-0.23-1.28-0.39-2.23 C72.36,81.73,72.13,80.57,72.13,80.57z" fill="#C0711F"/>
  <path d="M69.6,72.12c0,0,2.27,0.15,6.68-1.51c3.85-1.45,5.5-3.39,5.5-3.39l-5.42-11.9l-12.99,4.72L69.6,72.12 z" fill="#A2672B"/>
  <path d="M69.37,57.5c0,0,10.04,3.21,14.47,4.69c4.43,1.48,7.96,2.22,7.96,2.22s1.39-2.76,1.88-5.14 c0.33-1.58,0.26-4.06,0.94-4.01c1.12,0.08,1.93,1.98,1.98,4.56c0.04,2.22-0.54,5.52-0.54,5.52l4.69,1.28c0,0,1.21-1.74,1.89-4.51 c0.71-2.9,0.35-4,1.06-4.2c0.79-0.22,2.28,0.81,2,5.39c-0.17,2.79-0.64,4.38-0.5,4.49c0.23,0.18,2.49,1.02,4.54,1.6 c2.05,0.57,4.15,0.94,4.15,0.94s3.71-16.72-6.65-23.47c-12.96-8.45-29.62-0.9-29.62-0.9l12.21-9.64c0,0-0.88-2.18-1.95-3.84 c-1.22-1.9-2.85-3.11-2.54-3.54c0.42-0.6,2.94-0.6,5.09,1.4c1.81,1.69,3.18,3.44,3.24,3.49l3.59-2.59c0,0-0.35-2.35-1.3-3.84 c-0.92-1.45-2.32-2.8-1.97-3c0.74-0.42,3.04,0.31,4.49,1.72c1.25,1.22,2.26,3.11,2.26,3.11l7.3-5c0,0-5.33-8.45-16.57-8.04 s-17.31,7.63-19.2,9.76s-4.02,6.73-4.02,6.73l0.21-12.75c0,0-1.75-0.4-3.43-0.6c-2.53-0.3-4.29,0.22-4.33-0.03 c-0.13-0.89,1.45-2.19,3.94-2.72c2.44-0.51,4.41-0.21,4.41-0.21l2.06-11.92c0,0-4.59-0.37-9.71,2.06c-3.31,1.57-7.15,4.29-9.7,8.7 c-5.65,9.75-0.2,20.25-0.2,20.25s-7.98-8.3-21.25-5.17c-14.55,3.43-18.22,19.4-17.4,19.4c2.22,0,10.32,0.38,10.73,0.05 c0.21-0.16,0.77-2.41,2.1-4.44c1.32-2.03,3.09-3.74,4.54-3.74c0.75,0-0.26,1.51-1.15,3.69c-0.9,2.22-1.4,4.69-1.4,4.69h7.22 c0,0,1.52-7.31,4.06-7.83c1.09-0.22,0.35,2.13,0.08,3.93c-0.28,1.86-0.44,3.91-0.44,3.91l9.14,0.29c0,0-11.75,0.71-19.9,8.15 c-8.43,7.68-9.31,18.36-8.57,23.69s1.48,7.79,1.97,8.04c0.49,0.25,7.3-7.3,7.55-7.88c0.25-0.57-1.07-3.04-1.07-6.32 c0-3.28,0.74-4.92,1.39-5c0.66-0.08,0.49,2.3,0.98,4.35c0.52,2.15,1.31,3.94,1.64,4.1c0.33,0.16,4.33-4.91,4.33-4.91 s-0.68-1.92-0.9-3.79s-0.03-3.89,0.51-4.26c0.59-0.41,1.09,1.73,1.79,3.56c0.56,1.46,0.83,1.96,1.15,2.35l7.24-6.89 c0,0-5.84,9.33-5.08,18.62c0.84,10.39,8.04,14.28,8.45,14.19c0.41-0.08,5.25-11.16,5.25-11.16s-1.71-1.57-2.98-3.94 c-1.6-2.99-1.56-5.28-0.96-5.66c0.84-0.53,2.05,2.79,3.28,4.27c1.23,1.48,1.97,2.3,2.22,2.3s3.82-7.8,3.82-7.8s-1.04-0.61-1.82-1.82 c-0.66-1.02-1.25-2.78-0.69-3.84c0.6-0.56,1.21,0.89,2.14,1.65c0.93,0.76,1.64,1.14,1.64,1.14s3.77-6.48,5.25-9.52 C67.85,60.79,69.37,57.5,69.37,57.5z" fill="#728137"/>
  <path d="M71.74,61.84c0.46-0.3,1.39-6.53,1.83-9.64c0.4-2.8,1.38-6.99-0.75-7.4 c-1.46-0.28-2.07,1.79-2.55,4.01c-0.42,1.98-1.04,4.67-1.04,4.67s-1.89-3.63-3.16-5.84c-0.92-1.6-2.9-4.97-4.48-3.96 c-1.81,1.16,0.15,4.87,1.26,6.92s2.36,4.44,2.36,4.44s-3.34-1.14-5.29-1.74c-2.14-0.66-4.99-1.24-5.39-0.09c-0.7,2,1.94,3,7.06,5.09 C66.68,60.37,70.96,62.35,71.74,61.84z" fill="#BDCF47"/>
  <path d="M52.13,23.18c-0.23,4.08,0.49,10.02,3.39,9.36c2.51-0.56-0.4-4.41-0.37-9.28 c0.04-6.83,4.46-8.46,3.07-9.93C57.09,12.13,52.5,16.55,52.13,23.18z" fill="#BDCF47"/>
  <path d="M35.24,34.21c2.75-0.62,4.48-0.53,4.54-1.19c0.07-0.85-0.77-1.45-4.33-1.27 c-3.27,0.16-6.57,1.02-9.77,3.19c-2.12,1.44-3.76,3.01-4.89,4.3c-3.06,3.52-3.52,6.49-1.69,6.86c1.89,0.38,2.77-1.75,4.2-4.02 C26.74,36.59,31.97,34.95,35.24,34.21z" fill="#BDCF47"/>
  <path d="M23.47,84.5c1.56-0.06,1.51-1.55,1.55-5.4c0.03-2.51-0.08-5.77,0.98-8.99 c1.43-4.33,3.64-7.08,6.17-9.4c2.78-2.55,5.71-4.08,7.36-4.82c3.15-1.43,1.68-2.7-0.41-1.8c-2.08,0.9-9.16,3.47-13.78,10.51 c-3.01,4.58-3.76,8.2-3.89,13.03C21.36,81.27,22.41,84.54,23.47,84.5z" fill="#BDCF47"/>
  <path d="M47.35,69.7c-1.27,0-3.6,6.01-3.43,12.06c0.16,6.05,2.15,9.92,3.92,10.63 c1.43,0.57,2.45-0.94,1.92-3.27c-0.35-1.52-2.25-3.97-2.62-7.93c-0.37-3.97,0.33-8.3,0.53-9.36C47.88,70.76,48.2,69.7,47.35,69.7z" fill="#BDCF47"/>
</svg>

<svg viewBox="0 0 128 128" xmlns="http://www.w3.org/2000/svg">
  <defs/>
  <path d="M72.05,51.72 L61.67,58.67 C61.67,58.67 69.92,68.26 72.3,81.47 C73.84,89.99 75.05,97.59 74.04,104.81 C73.63,107.76 70.78,113.71 69.96,115.71 C69.14,117.71 67.96,122.42 71.61,123.36 C75.26,124.3 87.15,124.66 88.92,124.42 C90.69,124.18 92.78,122.9 91.83,118.63 C91.24,115.98 90.24,107.69 89.65,102.04 C89.06,96.39 88.7,85.51 83.78,72.15 C78.99,59.15 72.05,51.72 72.05,51.72 Z" fill="#DC8124"/>
  <path d="M81.6,109.06 C86.96,109.37 90.36,108.34 90.36,108.34 L91.09,113.77 C91.09,113.77 87.81,114.7 81.64,114.31 C76.25,113.97 71.38,112.5 71.38,112.5 L73.39,107.37 C73.38,107.36 76.2,108.75 81.6,109.06 Z" fill="#C0711F"/>
  <path d="M74.2,94.33 C74.2,94.33 74.3,95.84 74.35,96.79 C74.4,97.75 74.42,99.23 74.42,99.23 C74.42,99.23 78.47,99.7 81.67,99.57 C86.91,99.36 89.27,98.11 89.27,98.11 C89.27,98.11 89.18,96.94 89.03,95.56 C88.89,94.17 88.72,93.03 88.72,93.03 C88.72,93.03 86.15,94.3 80.75,94.65 C76.9,94.9 74.2,94.33 74.2,94.33 Z" fill="#C0711F"/>
  <path d="M72.13,80.57 C72.13,80.57 74.59,81.07 79.17,80.08 C83.62,79.11 85.53,77.42 85.53,77.42 C85.53,77.42 85.95,78.72 86.2,79.72 C86.43,80.65 86.79,82.01 86.79,82.01 C86.79,82.01 84.99,83.78 80.11,84.74 C75.32,85.69 72.94,85.04 72.94,85.04 C72.94,85.04 72.71,83.76 72.55,82.81 C72.36,81.73 72.13,80.57 72.13,80.57 Z" fill="#C0711F"/>
  <path d="M69.6,72.12 C69.6,72.12 71.87,72.27 76.28,70.61 C80.13,69.16 81.78,67.22 81.78,67.22 L76.36,55.32 L63.37,60.04 L69.6,72.12 Z" fill="#A2672B"/>
  <path d="M69.37,57.5 C69.37,57.5 79.41,60.71 83.84,62.19 C88.27,63.67 91.8,64.41 91.8,64.41 C91.8,64.41 93.19,61.65 93.68,59.27 C94.01,57.69 93.94,55.21 94.62,55.26 C95.74,55.34 96.55,57.24 96.6,59.82 C96.64,62.04 96.06,65.34 96.06,65.34 L100.75,66.62 C100.75,66.62 101.96,64.88 102.64,62.11 C103.35,59.21 102.99,58.11 103.7,57.91 C104.49,57.69 105.98,58.72 105.7,63.3 C105.53,66.09 105.06,67.68 105.2,67.79 C105.43,67.97 107.69,68.81 109.74,69.39 C111.79,69.96 113.89,70.33 113.89,70.33 C113.89,70.33 117.6,53.61 107.24,46.86 C94.28,38.41 77.62,45.96 77.62,45.96 L89.83,36.32 C89.83,36.32 88.95,34.14 87.88,32.48 C86.66,30.58 85.03,29.37 85.34,28.94 C85.76,28.34 88.28,28.34 90.43,30.34 C92.24,32.03 93.61,33.78 93.67,33.83 L97.26,31.24 C97.26,31.24 96.91,28.89 95.96,27.4 C95.04,25.95 93.64,24.6 93.99,24.4 C94.73,23.98 97.03,24.71 98.48,26.12 C99.73,27.34 100.74,29.23 100.74,29.23 L108.04,24.23 C108.04,24.23 102.71,15.78 91.47,16.19 C80.23,16.6 74.16,23.82 72.27,25.95 C70.38,28.08 68.25,32.68 68.25,32.68 L68.46,19.93 C68.46,19.93 66.71,19.53 65.03,19.33 C62.5,19.03 60.74,19.55 60.7,19.3 C60.57,18.41 62.15,17.11 64.64,16.58 C67.08,16.07 69.05,16.37 69.05,16.37 L71.11,4.45 C71.11,4.45 66.52,4.08 61.4,6.51 C58.09,8.08 54.25,10.8 51.7,15.21 C46.05,24.96 51.5,35.46 51.5,35.46 C51.5,35.46 43.52,27.16 30.25,30.29 C15.7,33.72 12.03,49.69 12.85,49.69 C15.07,49.69 23.17,50.07 23.58,49.74 C23.79,49.58 24.35,47.33 25.68,45.3 C27,43.27 28.77,41.56 30.22,41.56 C30.97,41.56 29.96,43.07 29.07,45.25 C28.17,47.47 27.67,49.94 27.67,49.94 L34.89,49.94 C34.89,49.94 36.41,42.63 38.95,42.11 C40.04,41.89 39.3,44.24 39.03,46.04 C38.75,47.9 38.59,49.95 38.59,49.95 L47.73,50.24 C47.73,50.24 35.98,50.95 27.83,58.39 C19.4,66.07 18.52,76.75 19.26,82.08 C20,87.41 20.74,89.87 21.23,90.12 C21.72,90.37 28.53,82.82 28.78,82.24 C29.03,81.67 27.71,79.2 27.71,75.92 C27.71,72.64 28.45,71 29.1,70.92 C29.76,70.84 29.59,73.22 30.08,75.27 C30.6,77.42 31.39,79.21 31.72,79.37 C32.05,79.53 36.05,74.46 36.05,74.46 C36.05,74.46 35.37,72.54 35.15,70.67 C34.93,68.8 35.12,66.78 35.66,66.41 C36.25,66 36.75,68.14 37.45,69.97 C38.01,71.43 38.28,71.93 38.6,72.32 L45.84,65.43 C45.84,65.43 40,74.76 40.76,84.05 C41.6,94.44 48.8,98.33 49.21,98.24 C49.62,98.16 54.46,87.08 54.46,87.08 C54.46,87.08 52.75,85.51 51.48,83.14 C49.88,80.15 49.92,77.86 50.52,77.48 C51.36,76.95 52.57,80.27 53.8,81.75 C55.03,83.23 55.77,84.05 56.02,84.05 C56.27,84.05 59.84,76.25 59.84,76.25 C59.84,76.25 58.8,75.64 58.02,74.43 C57.36,73.41 56.77,71.65 57.33,70.59 C57.93,70.03 58.54,71.48 59.47,72.24 C60.4,73 61.11,73.38 61.11,73.38 C61.11,73.38 64.88,66.9 66.36,63.86 C67.85,60.79 69.37,57.5 69.37,57.5 Z" fill="#728137"/>
  <path d="M71.74,61.84 C72.2,61.54 73.13,55.31 73.57,52.2 C73.97,49.4 74.95,45.21 72.82,44.8 C71.36,44.52 70.75,46.59 70.27,48.81 C69.85,50.79 69.23,53.48 69.23,53.48 C69.23,53.48 67.34,49.85 66.07,47.64 C65.15,46.04 63.17,42.67 61.59,43.68 C59.78,44.84 61.74,48.55 62.85,50.6 C63.96,52.65 65.21,55.04 65.21,55.04 C65.21,55.04 61.87,53.9 59.92,53.3 C57.78,52.64 54.93,52.06 54.53,53.21 C53.83,55.21 56.47,56.21 61.59,58.3 C66.68,60.37 70.96,62.35 71.74,61.84 Z" fill="#BDCF47"/>
  <path d="M52.13,23.18 C51.9,27.26 52.62,33.2 55.52,32.54 C58.03,31.98 55.12,28.13 55.15,23.26 C55.19,16.43 59.61,14.8 58.22,13.33 C57.09,12.13 52.5,16.55 52.13,23.18 Z" fill="#BDCF47"/>
  <path d="M35.24,34.21 C37.99,33.59 39.72,33.68 39.78,33.02 C39.85,32.17 39.01,31.57 35.45,31.75 C32.18,31.91 28.88,32.77 25.68,34.94 C23.56,36.38 21.92,37.95 20.79,39.24 C17.73,42.76 17.27,45.73 19.1,46.1 C20.99,46.48 21.87,44.35 23.3,42.08 C26.74,36.59 31.97,34.95 35.24,34.21 Z" fill="#BDCF47"/>
  <path d="M23.47,84.5 C25.03,84.44 24.98,82.95 25.02,79.1 C25.05,76.59 24.94,73.33 26,70.11 C27.43,65.78 29.64,63.03 32.17,60.71 C34.95,58.16 37.88,56.63 39.53,55.89 C42.68,54.46 41.21,53.19 39.12,54.09 C37.04,54.99 29.96,57.56 25.34,64.6 C22.33,69.18 21.58,72.8 21.45,77.63 C21.36,81.27 22.41,84.54 23.47,84.5 Z" fill="#BDCF47"/>
  <path d="M47.35,69.7 C46.08,69.7 43.75,75.71 43.92,81.76 C44.08,87.81 46.07,91.68 47.84,92.39 C49.27,92.96 50.29,91.45 49.76,89.12 C49.41,87.6 47.51,85.15 47.14,81.19 C46.77,77.22 47.47,72.89 47.67,71.83 C47.88,70.76 48.2,69.7 47.35,69.7 Z" fill="#BDCF47"/>
</svg>
